X:1
T:Lord Whose Love Through Humble Service
T:Lord Whose Love Through Humble Service
L:1/8
M:3/2
K:F
V:1 treble nm="Piano" snm="Pno."
V:1
 F2 F2 | G4 F4 A2 A2 | G2 F2 D4 F2 F2 | D4 C4 D2 F2 | F8 F2 F2 | G4 F4 A2 A2 | G2 F2 D4 F2 F2 | %7
w: Lord, whose|love through hum- ble|ser- * vice bore the|weight of hu- man|need, who up-|on the cross, for-|sak- * en, of- fered|
 D4 C4 D2 F2 | F8 F2 A2 | c4 c4 d2 c2 | A4 F4 F2 A2 | c4 F4 AG F2 | D8 d2 c2 | A4 F4 A2 A2 | %14
w: mer- cy's per- fect|deed: we, your|ser- vants, bring the|wor- ship not of|voice a- lone, * but|heart, con- se-|crat- ing to your|
 G2 F2 D4 F2 F2 | D4 C4 D2 F2 | F8 F2 F2 | G4 F4 A2 A2 | G2 F2 D4 F2 F2 | D4 C4 D2 F2 | F8 F2 F2 | %21
w: pur- * pose ev- ery|gift that you im-|part. Still your|chil- dren wan- der|home- * less, still the|hun- gry cry for|bread; still the|
 G4 F4 A2 A2 | G2 F2 D4 F2 F2 | D4 C4 D2 F2 | F8 F2 A2 | c4 c4 d2 c2 | A4 F4 F2 A2 | c4 F4 AG F2 | %28
w: cap- tives long for|free- * dom; still in|grief we mourn our|dead. As, O|Lord, your deep com-|pas- sion healed the|sick and freed * the|
 D8 d2 c2 | A4 F4 A2 A2 | G2 F2 D4 F2 F2 | D4 C4 D2 F2 | F8 F2 F2 | G4 F4 A2 A2 | G2 F2 D4 F2 F2 | %35
w: soul, use the|love your Spir- it|kin * dles still to|save and make us|whole. As we|wor- ship, grant us|vi- * sion, till your|
 D4 C4 D2 F2 | F8 F2 F2 | G4 F4 A2 A2 | G2 F2 D4 F2 F2 | D4 C4 D2 F2 | F8 F2 A2 | c4 c4 d2 c2 | %42
w: love's re- veal- ing|light in its|height and depth and|great- * ness dawns up-|on our quick- ened|sight; mak- ing|known the needs and|
 A4 F4 F2 A2 | c4 F4 AG F2 | D8 d2 c2 | A4 F4 A2 A2 | G2 F2 D4 F2 F2 | D4 C4 D2 F2 | F8 F2 F2 | %49
w: bur- dens your com-|pas- sion bids * us|bear, stir- ring|us to tire- less|striv- * ing your a-|bun- dant life to|share. Called by|
 G4 F4 A2 A2 | G2 F2 D4 F2 F2 | D4 C4 D2 F2 | F8 F2 F2 | G4 F4 A2 A2 | G2 F2 D4 F2 F2 | %55
w: wor- ship to your|ser- * vice, forth in|your dear name we|go to the|child, the youth, the|a- * ged, love in|
 D4 C4 D2 F2 | F8 F2 A2 | c4 c4 d2 c2 | A4 F4 F2 A2 | c4 F4 AG F2 | D8 d2 c2 | A4 F4 A2 A2 | %62
w: liv- ing deeds to|show; hope and|health, good- will and|com- fort, coun- sel,|aid, and peace * we|give, that your|ser- vants, Lord, in|
 G2 F2 D4 F2 F2 | D4 C4 D2 F2 | F8 |] %65
w: free- * dom may your|mer- cy know and|live.|

